images/neocrym/v2/SVG/neocrym-rectangle-wordmark-horizontal-white-on-darkgray.svg

<?xml version="1.0" encoding="UTF-8"?><svg id="Background" xmlns="http://www.w3.org/2000/svg" viewBox="0 0 500 110"><defs><style>.cls-1{fill:#f9662b;}.cls-2{fill:#fff;}.cls-3{fill:#303335;}</style></defs><rect class="cls-3" width="500" height="110"/><g><g><path class="cls-2" d="m61.15,37.51L30.95,12.94c-.96-.78-2.41-.1-2.41,1.13v51.43l-11.39,6.44c-2.88,1.62-4.66,4.68-4.66,7.98v16.33c0,.86.94,1.43,1.7,1l14.34-8.12,7.08-4.01c2.88-1.62,4.66-4.68,4.66-8v-41.45l23.75,19.33v-11.46c0-2.33-1.06-4.56-2.88-6.03Z"/><path class="cls-1" d="m113.85,12.74l-14.34,8.12-7.08,4.01c-2.88,1.62-4.66,4.7-4.66,8v41.45l-23.75-19.33v11.46c0,2.33,1.06,4.56,2.88,6.03l30.21,24.57c.98.78,2.41.1,2.41-1.13v-51.43l11.39-6.44c2.9-1.62,4.68-4.68,4.68-7.98V13.74c0-.86-.96-1.43-1.72-1Z"/></g><g><path class="cls-2" d="m168.38,35.28c-1.72,0-3.13,1.43-3.13,3.18v28.87l-20.86-30.13c-.97-1.24-2.24-1.92-3.58-1.92h-.74c-2.35,0-4.26,1.94-4.26,4.32v33.93c0,1.72,1.4,3.13,3.13,3.13s3.18-1.4,3.18-3.13v-28.92l20.97,30.29c.84,1.12,2.1,1.76,3.47,1.76h.68c2.38,0,4.32-1.91,4.32-4.26v-33.93c0-1.73-1.46-3.18-3.18-3.18Z"/><path class="cls-2" d="m216.47,41.54c1.69,0,3.01-1.3,3.01-2.96s-1.32-3.01-3.01-3.01h-22.79c-1.72,0-3.13,1.43-3.13,3.18v34.5c0,1.72,1.4,3.13,3.13,3.13h22.79c1.69,0,3.01-1.3,3.01-2.96s-1.32-3.01-3.01-3.01h-19.61v-11.48h17.56c1.69,0,3.01-1.3,3.01-2.96s-1.32-3.01-3.01-3.01h-17.56v-11.42h19.61Z"/><path class="cls-2" d="m253.64,35c-12.03,0-20.28,8.42-20.52,20.99.24,12.54,8.49,20.96,20.52,20.96s20.28-8.42,20.52-20.96v-.02c-.24-12.54-8.49-20.96-20.52-20.96Zm0,35.98c-8.5,0-14.21-6.03-14.21-15s5.71-15,14.21-15,14.21,6.03,14.21,15-5.71,15-14.21,15Z"/><path class="cls-2" d="m309.35,41.08c4.32,0,7.17,1.04,10.15,2.61.52.26,1.07.29,1.28.29.82,0,1.57-.31,2.1-.86.51-.53.78-1.26.74-2.01-.06-1.18-.56-1.98-1.54-2.51-3.15-1.78-7.19-3.6-13.24-3.6-12.24,0-20.46,8.43-20.46,20.97s8.22,20.97,20.46,20.97c6.05,0,10.09-1.82,13.23-3.59.99-.54,1.49-1.34,1.55-2.52h0c.04-.75-.24-1.48-.74-2.01-.53-.56-1.28-.86-2.1-.86-.21,0-.76.03-1.29.29-2.96,1.56-5.82,2.61-10.14,2.61-9.04,0-14.66-5.71-14.66-14.89s5.62-14.89,14.66-14.89Z"/><path class="cls-2" d="m375.29,47.67c0-7.69-5.84-12.11-16.03-12.11h-13.24c-1.72,0-3.13,1.43-3.13,3.18v34.78c0,1.72,1.4,3.13,3.13,3.13s3.18-1.4,3.18-3.13v-12.62h11.2c7.3,0,8.24,5.83,8.24,10.91v1.7c0,1.87,1.28,3.13,3.18,3.13,1.72,0,3.13-1.4,3.13-3.13v-2.61c0-2.51-.47-10.39-6.08-12.99,4-1.92,6.42-5.73,6.42-10.25Zm-6.31.4c0,4.27-3.76,6.82-10.06,6.82h-9.72v-13.3h9.43c9.17,0,10.34,3.46,10.34,6.48Z"/><path class="cls-2" d="m424.57,35.28c-1.13,0-2.06.52-2.75,1.56l-11.41,16.59-11.4-16.59c-.69-1.04-1.61-1.56-2.75-1.56-.85,0-1.64.33-2.22.93-.58.61-.89,1.42-.85,2.25,0,.64.18,1.26.56,1.87l13.48,18.89v14.31c0,1.72,1.43,3.13,3.18,3.13s3.13-1.4,3.13-3.13v-14.31l13.55-18.92c.36-.57.54-1.19.54-1.81.03-.86-.27-1.67-.85-2.28-.58-.6-1.37-.93-2.22-.93Z"/><path class="cls-2" d="m483.24,35.28h-1.88c-1.71,0-3.31,1.1-4,2.74l-12.37,30.85-12.38-30.86c-.68-1.64-2.29-2.74-3.99-2.74h-1.88c-2.35,0-4.26,1.94-4.26,4.32v33.93c0,1.72,1.4,3.13,3.13,3.13s3.18-1.4,3.18-3.13v-29.35l12.04,29.75c.74,1.68,2.33,2.73,4.16,2.73s3.42-1.05,4.17-2.74l12.03-29.74v29.35c0,1.72,1.43,3.13,3.19,3.13s3.13-1.4,3.13-3.13v-33.93c0-2.38-1.91-4.32-4.26-4.32Z"/></g></g></svg>

<svg id="Background" xmlns="http://www.w3.org/2000/svg" viewBox="0 0 500 110"><defs><style>.cls-1{fill:#303335;}.cls-2{fill:#fff;}.cls-3{fill:#f9662b;}</style></defs><rect class="cls-1" width="500" height="110"/><path class="cls-2" d="M61.15,37.51,31,12.94a1.48,1.48,0,0,0-2.41,1.13V65.51L17.16,71.94a9.17,9.17,0,0,0-4.66,8V96.26a1.15,1.15,0,0,0,1.7,1l14.34-8.12,7.08-4a9.18,9.18,0,0,0,4.66-8V35.67L64,55V43.54A7.77,7.77,0,0,0,61.15,37.51Z"/><path class="cls-3" d="M113.85,12.74,99.52,20.86l-7.09,4a9.22,9.22,0,0,0-4.65,8V74.33L64,55V66.46a7.76,7.76,0,0,0,2.87,6L97.11,97.06a1.48,1.48,0,0,0,2.41-1.13V44.49l11.38-6.43a9.14,9.14,0,0,0,4.68-8V13.74A1.17,1.17,0,0,0,113.85,12.74Z"/><path class="cls-2" d="M168.38,35.28a3.16,3.16,0,0,0-3.13,3.19V67.33L144.39,37.2a4.57,4.57,0,0,0-3.58-1.92h-.74a4.3,4.3,0,0,0-4.26,4.32V73.53a3.13,3.13,0,0,0,3.12,3.13,3.16,3.16,0,0,0,3.19-3.13V44.61l21,30.29a4.31,4.31,0,0,0,3.47,1.76h.68a4.3,4.3,0,0,0,4.32-4.26V38.47A3.23,3.23,0,0,0,168.38,35.28Z"/><path class="cls-2" d="M216.47,41.54a3,3,0,0,0,3-3,3,3,0,0,0-3-3H193.68a3.16,3.16,0,0,0-3.13,3.19v34.5a3.13,3.13,0,0,0,3.13,3.13h22.79a3,3,0,1,0,0-6H196.86V58.93h17.56a3,3,0,1,0,0-6H196.86V41.54Z"/><path class="cls-2" d="M253.64,35c-12,0-20.28,8.42-20.52,21,.24,12.54,8.49,21,20.52,21s20.28-8.43,20.52-21v0C273.92,43.42,265.68,35,253.64,35Zm0,36c-8.49,0-14.2-6-14.2-15s5.71-15,14.2-15,14.21,6,14.21,15S262.14,71,253.64,71Z"/><path class="cls-2" d="M309.35,41.08a20,20,0,0,1,10.15,2.61,3,3,0,0,0,1.28.29,2.89,2.89,0,0,0,2.1-.86,2.93,2.93,0,0,0-.8-4.53A25.49,25.49,0,0,0,308.84,35c-12.24,0-20.46,8.43-20.46,21s8.22,21,20.46,21a25.32,25.32,0,0,0,13.23-3.6,2.77,2.77,0,0,0,1.55-2.51h0a2.77,2.77,0,0,0-.74-2,2.86,2.86,0,0,0-2.1-.87,2.94,2.94,0,0,0-1.29.3,20,20,0,0,1-10.14,2.6c-9,0-14.66-5.7-14.66-14.89S300.31,41.08,309.35,41.08Z"/><path class="cls-2" d="M375.29,47.67c0-7.69-5.84-12.11-16-12.11H346a3.16,3.16,0,0,0-3.13,3.19V73.53a3.16,3.16,0,0,0,6.31,0V60.92h11.2c7.3,0,8.24,5.83,8.24,10.91v1.7a3,3,0,0,0,3.18,3.13A3.13,3.13,0,0,0,375,73.53V70.92c0-2.51-.47-10.39-6.08-13A11.12,11.12,0,0,0,375.29,47.67Zm-6.31.4c0,4.27-3.76,6.82-10.06,6.82H349.2V41.59h9.44C367.8,41.59,369,45.05,369,48.07Z"/><path class="cls-2" d="M424.57,35.28a3.18,3.18,0,0,0-2.74,1.56L410.42,53.43,399,36.84a3.2,3.2,0,0,0-2.75-1.56,3,3,0,0,0-3.07,3.19,3.42,3.42,0,0,0,.56,1.86l13.48,18.89V73.53a3.16,3.16,0,0,0,6.31,0V59.22L427.1,40.3a3.38,3.38,0,0,0,.54-1.81,3,3,0,0,0-3.07-3.21Z"/><path class="cls-2" d="M483.24,35.28h-1.88a4.42,4.42,0,0,0-4,2.75L465,68.88,452.62,38a4.42,4.42,0,0,0-4-2.74h-1.87a4.3,4.3,0,0,0-4.27,4.32V73.53a3.16,3.16,0,0,0,6.31,0V44.18l12,29.75a4.54,4.54,0,0,0,8.33,0l12-29.74V73.53a3.16,3.16,0,0,0,6.31,0V39.6A4.3,4.3,0,0,0,483.24,35.28Z"/></svg>
